packages/dnb-ui-lib/assets/icons/phone.svg

<svg width="16" height="16" viewBox="0 0 16 16" fill="none" xmlns="http://www.w3.org/2000/svg">
<path fill-rule="evenodd" clip-rule="evenodd" d="M4.63636 0.25C3.8707 0.25 3.25 0.870696 3.25 1.63636V14.3636C3.25 15.1293 3.8707 15.75 4.63636 15.75H11.6364C12.402 15.75 13.0227 15.1293 13.0227 14.3636V1.63636C13.0227 0.870697 12.402 0.25 11.6364 0.25H4.63636ZM4.75 14.25V1.75H11.5227V14.25H4.75ZM7.19999 2.47729C6.78577 2.47729 6.44999 2.81308 6.44999 3.22729C6.44999 3.64151 6.78577 3.97729 7.19999 3.97729H9C9.41421 3.97729 9.75 3.64151 9.75 3.22729C9.75 2.81308 9.41421 2.47729 9 2.47729H7.19999ZM8.13 13C8.68228 13 9.13 12.5523 9.13 12C9.13 11.4477 8.68228 11 8.13 11C7.57772 11 7.13 11.4477 7.13 12C7.13 12.5523 7.57772 13 8.13 13Z" fill="black"/>
</svg>

<svg width="16" height="16" viewBox="0 0 16 16" fill="none" xmlns="http://www.w3.org/2000/svg"><path fill-rule="evenodd" clip-rule="evenodd" d="M4.636.25C3.871.25 3.25.87 3.25 1.636v12.728c0 .765.62 1.386 1.386 1.386h7c.766 0 1.387-.62 1.387-1.386V1.636c0-.765-.621-1.386-1.387-1.386h-7zm.114 14V1.75h6.773v12.5H4.75zM7.2 2.477a.75.75 0 100 1.5H9a.75.75 0 100-1.5H7.2zM8.13 13a1 1 0 100-2 1 1 0 000 2z" fill="#000"/></svg>
